X:1
T:Woodleigh,  88.88.88.87
T:Woodleigh,  88.88.88.87
T:Joseph Barnby (1838-1896)
T:Public Domain Courtesy of the Cyber Hymnal™
C:Joseph Barnby (1838-1896)
Z:Public Domain
Z:Courtesy of the Cyber Hymnal™
%%score ( 1 2 ) ( 3 4 )
L:1/8
Q:1/4=108
M:4/4
K:C
V:1 treble 
V:2 treble 
V:3 bass 
V:4 bass 
V:1
 G2 | [Ec]2 [CG]2 [CE]2 [B,D]2 | [B,D]3 C C2 C2 | [CA]2 [CA]2 [FB]2 [Fc]2 | [Fd]2 [Ec]2 [DB]2 G2 | %5
 [Fc]2 [CG]2 [CE]2 [B,D]2 | [B,D]3 C C2 [CF]2 | [B,E]2 [B,^D]2 [B,B]2 (E^F) | %8
 [B,G]2 [^D^F]2 E2 E2 | [B,G]3 [B,F] [B,F]2 [CE]2 | [B,E]2 [B,D]2 [CG]2 [_B,E]2 | %11
 [A,A]2 [CG]2 [DF]2 [DA]2 | [Fd]2 [Ec]2 [DB]2 G2 | [Ee]2 [Fd]2 [Ec]2 [DB]2 | %14
 [CA]2 [^CG]2 [DF]2 [A,D]2 | [G,C]2 [G,B,][G,C] [CE]2 (DE) | [B,D]4 C2 |] %17
V:2
 G2 | x8 | x3 C C2 C2 | x8 | x6 G2 | x8 | x3 C C2 x2 | x6 C2 | x4 E2 E2 | x8 | x8 | x8 | x6 G2 | %13
 x8 | x8 | x6 B,2 | x4 C2 |] %17
V:3
 G,2 | [C,G,]2 [E,G,]2 G,2 [G,,F,]2 | [C,F,]3 [C,E,] [C,E,]2 [C,E,]2 | F,2 F,2 [D,F,]2 [C,A,]2 | %4
 [B,,G,]2 [C,G,]2 [G,,G,]2 G,2 | [C,G,]2 [E,G,]2 G,2 [G,,F,]2 | %6
 [A,,F,]3 [A,,E,] [A,,E,]2 [A,,A,]2 | [B,,G,]2 [A,,^F,]2 [G,,E,]2 [A,,E,]2 | %8
 [B,,E,]2 [B,,A,]2 [E,G,]2 E,2 | [D,G,]3 [D,G,] [D,G,]2 [E,G,]2 | [F,G,]2 [F,G,]2 [E,G,]2 [C,G,]2 | %11
 [^C,E,]2 [A,,A,]2 [D,A,]2 [=C,F,]2 | [B,,G,]2 [C,G,]2 [G,,G,]2 G,2 | %13
 [C,G,]2 [G,,B,]2 [A,,C]2 [E,,^G,]2 | [F,,A,]2 [A,,A,]2 [D,A,]2 [F,,F,]2 | %15
 [G,,E,]2 [G,,D,][G,,E,] [G,,G,]2 (F,G,) | [G,,F,]4 [C,E,]2 |] %17
V:4
 G,2 | x4 G,2 x2 | x8 | F,2 F,2 x4 | x6 G,2 | x4 G,2 x2 | x8 | x8 | x6 E,2 | x8 | x8 | x8 | %12
 x6 G,2 | x8 | x8 | x6 G,,2 | x6 |] %17

